theme/images/content/images/nimbly-logo-black.svg

<svg height="41.545" viewBox="0 0 169.477 41.545" width="169.477" xmlns="http://www.w3.org/2000/svg" xmlns:xlink="http://www.w3.org/1999/xlink"><clipPath id="a"><path d="m0 0h169.477v41.545h-169.477z"/></clipPath><g clip-path="url(#a)"><path d="m345.059 77.482a9.258 9.258 0 0 0 -9.249 9.249v8.023h3.468v-8.023a5.781 5.781 0 0 1 11.562 0v8.023h3.468v-8.023a9.258 9.258 0 0 0 -9.249-9.249" transform="translate(-283.256 -65.356)"/><path d="m786.094 45.524h-5.179v-5.93h-3.468v23.406h8.653a8.74 8.74 0 1 0 0-17.479m0 14.011h-5.179v-10.54h5.179a5.271 5.271 0 1 1 0 10.542" transform="translate(-655.775 -33.397)"/><path d="m559.3 77.478a9.242 9.242 0 0 0 -7.516 3.868 9.245 9.245 0 0 0 -16.764 5.382v8.023h3.468v-8.024a5.781 5.781 0 0 1 11.562 0v8.023h3.47v-8.023a5.781 5.781 0 1 1 11.562 0v8.023h3.468v-8.023a9.258 9.258 0 0 0 -9.249-9.249" transform="translate(-451.287 -65.352)"/><path d="m0 0h3.468v17.251h-3.468z" transform="translate(75.686 12.146)"/><path d="m0 0h3.468v23.243h-3.468z" transform="translate(143.128 6.155)"/><path d="m979.733 80.915v8.023a5.781 5.781 0 1 1 -11.562 0v-8.023h-3.471v8.023a9.264 9.264 0 0 0 7.516 9.084v5.537h3.467v-5.537a9.264 9.264 0 0 0 7.516-9.084v-8.023z" transform="translate(-813.725 -68.251)"/><path d="m27.721 13.826a11.751 11.751 0 0 1 10.426 3.2 12.056 12.056 0 0 1 -.247 17.029l-7.493 7.49-3.145-3.145 7.491-7.491a7.418 7.418 0 1 0 -10.485-10.486l-7.491 7.491-3.145-3.145 7.491-7.491a7.534 7.534 0 0 0 .153-10.641 7.534 7.534 0 0 0 -10.64.154l-7.491 7.491-3.145-3.145 7.491-7.491a12.056 12.056 0 0 1 17.024-.246 11.756 11.756 0 0 1 3.2 10.428m-10.5.009-7.482 7.489a7.534 7.534 0 0 0 -.154 10.641 7.534 7.534 0 0 0 10.641-.155l7.491-7.491 3.145 3.145-7.491 7.491a12.056 12.056 0 0 1 -17.024.249 12.056 12.056 0 0 1 .249-17.025l7.49-7.491z" fill="#c099fb"/></g></svg>

<svg xmlns="http://www.w3.org/2000/svg" xmlns:xlink="http://www.w3.org/1999/xlink" width="169.477" height="41.545" viewBox="0 0 169.477 41.545">
  <defs>
    <clipPath id="clip-path">
      <rect id="Rectangle_72" data-name="Rectangle 72" width="169.477" height="41.545" fill="none"/>
    </clipPath>
  </defs>
  <g id="nimbly_logo_black" clip-path="url(#clip-path)">
    <path id="Path_94" data-name="Path 94" d="M345.059,77.482a9.258,9.258,0,0,0-9.249,9.249v8.023h3.468V86.731a5.781,5.781,0,0,1,11.562,0v8.023h3.468V86.731a9.258,9.258,0,0,0-9.249-9.249" transform="translate(-283.256 -65.356)"/>
    <path id="Path_95" data-name="Path 95" d="M786.094,45.524h-5.179v-5.93h-3.468V63H786.1a8.74,8.74,0,1,0,0-17.479m0,14.011h-5.179V48.992H786.1a5.271,5.271,0,1,1,0,10.542" transform="translate(-655.775 -33.397)"/>
    <path id="Path_96" data-name="Path 96" d="M559.3,77.478a9.242,9.242,0,0,0-7.516,3.868,9.245,9.245,0,0,0-16.764,5.382v8.023h3.468V86.727a5.781,5.781,0,0,1,11.562,0V94.75h3.47V86.727a5.781,5.781,0,1,1,11.562,0V94.75h3.468V86.727a9.258,9.258,0,0,0-9.249-9.249" transform="translate(-451.287 -65.352)"/>
    <rect id="Rectangle_70" data-name="Rectangle 70" width="3.468" height="17.251" transform="translate(75.686 12.146)"/>
    <rect id="Rectangle_71" data-name="Rectangle 71" width="3.468" height="23.243" transform="translate(143.128 6.155)"/>
    <path id="Path_97" data-name="Path 97" d="M979.733,80.915v8.023a5.781,5.781,0,1,1-11.562,0V80.915H964.7v8.023a9.264,9.264,0,0,0,7.516,9.084v5.537h3.467V98.022a9.264,9.264,0,0,0,7.516-9.084V80.915Z" transform="translate(-813.725 -68.251)"/>
    <path id="Path_98" data-name="Path 98" d="M27.721,13.826a11.751,11.751,0,0,1,10.426,3.2A12.056,12.056,0,0,1,37.9,34.055l-7.493,7.49L27.262,38.4l7.491-7.491A7.418,7.418,0,1,0,24.268,20.423l-7.491,7.491-3.145-3.145,7.491-7.491a7.534,7.534,0,0,0,.153-10.641,7.534,7.534,0,0,0-10.64.154L3.145,14.282,0,11.137,7.491,3.646A12.056,12.056,0,0,1,24.515,3.4a11.756,11.756,0,0,1,3.2,10.428m-10.5.009L9.733,21.326a7.534,7.534,0,0,0-.154,10.641,7.534,7.534,0,0,0,10.641-.155l7.491-7.491,3.145,3.145-7.491,7.491a12.056,12.056,0,0,1-17.024.249,12.056,12.056,0,0,1,.249-17.025L14.08,10.69Z" transform="translate(0 0)" fill="#c099fb"/>
  </g>
</svg>
